X: 802
T: Jenny Nettles
R: reel
B: Robert Bremner "A Collection of Scots Reels or Country Dances" 1757 p.80 #2
S: http://imslp.org/wiki/A_Collection_of_Scots_Reels_or_Country_Dances_(Bremner,_Robert)
Z: 2013 John Chambers <jc:trillian.mit.edu>
M: C
L: 1/8
K: Ador
% - - - - - - - - - - - - - - - - - - - - - - - - -
V: 1
B |\
c2TB2 A2a2 | e>fge dBGB |\
c2TB2 A2a2 | g>egd e2A :|\
|: B |\
c>deA c>deA | (d/c/B/A/ G)d BGdB |
c>deA c>dea | (Tgeg)d e2A :|\
|: B |\
c>def g>(aTge) | g>(aTge) (d/c/B/A/ G)B |\
c>def g>(aTge) | aba^g a2A :|
% - - - - - - - - - - - - - - - - - - - - - - - - -
V: 2 clef=bass middle=d
z |\
a2a2 a2a2 | a2a2 g2g2 |\
a2a2 a2a2 | e2e2 A2A :|\
|: z |\
a2a2 a2a2 | g2g2 g2g2 |\
a2a2 a2a2 | e2e2 A2A :|\
|: z |\
a2a2 a2a2 | a2a2 g2g2 |\
a2a2 a2a2 | e2e2 A2A :|\
% - - - - - - - - - - - - - - - - - - - - - - - - -

%%sep 1 1 500
%%sep 1 1 500
